X: 3
T: The Star Of Munster
R: reel
M: 4/4
L: 1/8
K: Ador
AB|c3A BAGE|A2BA GEDG|EAAB c2B/c/d|eaae gedB|c3A BAGE|A2BA GEDG|EAAB c2B/c/d|egdB A2AB||c3A BAGE|A2BA GEDG|EAAB c2B/c/d|eaae gedB|cA~A2 BG~G2|AE~E2 GEDG|EAAB c2B/c/d|egdB A2Bd||:eaab agea|~a2ba gede|~g3a gede|geae gedg|eaab agea|~a2ba gede|~g3e ~a3g|1abba gedg:|~b3a gedB||


Tune 197	Setting 12858

